!!!SOCIAL_FUNCTION:	songs used in the treatment of the sick
!!!PDT:	1929
!!!OTL: No_53_Song_of_the_Badger_Medicine.krn
!!!REG: Southwest
!!!LANG: Non-Tone
!!!LING_GROUP: Uto-Aztecan
**kern
*staff1
*clefF4
*k[b-e-a-d-g-c-]
*M3/4
8A-\L
8A-\J
=1
(8c-\L
8A-\J)
8A-\L
8A-\J
8A-\L
16.G-\L
32A-\JJk
=2||
*M2/4
[2A-\
=3
8A-\L]
8E-\J
8A-\L
8A-\J
=4
(8A-\L
8G-\J)
8G-\L
8G-\J
=5
(8G-\L
8E-\J)
8E-\L
8D-\J
=6||
*M3/4
(8E-\L
8D-\J)
8D-\L
8D-\J
8D-\L
8D-\J
=7
4D-\
4r
8.E-\L
16G-\Jk
=8
4G-\
8G-\L
8G-\J
8G-\L
16.E-\L
32G-\JJk
=9||
*M2/4
8G-\L
8E-\J
8G-\L
8G-\J
=10||
*M3/4
8E-\L
8D-\J
8D-\L
8D-\J
8D-\
8r
=11||
*M2/4
4E-\
16G-\LL
16E-\J
8D-\J
=12||
*M3/4
4D-\
8D-\L
8D-\J
8.D-/L
16C-/Jk
=13
4D-\
8D-\L
8D-\J
8D-\L
8D-\J
=14
8D-\L
8D-\J
8D-\L
8D-\J
4D-\
==
*-
